X:0
T:Milking Croon
S:Kennedy-Fraser, Songs of the Hebrides
G:milking song from South Uist
M:7/4
L:1/8
Q:1/2=80
K:F Mixolydian
DF|B2 cd F2 F2 F2 F2 de|f2 ed   cB    c2 dc B2
fe|d2 fB BF F2 F2 F2 DF|B2 cc (3dcB   GF F2 F2||
DF|B2 cd F2 F2 F2 F2 de|f2 ed   cB    c2 dc B2
fe|d2 fF F2 F2 F2 F2 DF|B2 cc (3dcB   GF F2 F2||
DF|B2 cd F2 F2 F2 F2 de|f2 ed   cB    c2 dc B2
fe|d2 fB BF F2 F2 F2 DF|B2 cc   d/c/B GF F2 F2|]
